X:23001
T:Ty a Gardd
R:Reel|Jig|Slip Jig|Hornpipe|Polka|Waltz
B:Tuneworks Tunebook 2 (https://www.tuneworks.co.uk/)
G:Tuneworks
Z:Jon Warbrick <jon.warbrick@googlemail.com>
M:6/8
L:1/8
K:G
|: "G" B2 G GFG | B2 G GFG | "D7" A2 A ABc | "G" d3 B3 |
"G" B2 G GFG | B2 G GFG | "D7" A2 A ABA | "G" G3 G3 :|
|: "C" g2 g gfe | "G" d2 d dcB | "D7" A2 A ABc | "G" d3 B3 |
"C" g2 g gfe | "G" d2 d dcB | "D7" A2 A ABA | "G" G3 G3 :|
 